public/formular-icons/english/upper-v.svg

<svg style="vertical-align:-.05ex" xmlns="http://www.w3.org/2000/svg" width="1.74ex" height="1.595ex" viewBox="0 -683 769 705" xmlns:xlink="http://www.w3.org/1999/xlink"><defs><path id="a" d="M52 648q0 22 13 35h11q42-3 105-3 118 0 139 3h10q6-6 6-9t-2-18q-5-15-9-19h-21q-22-2-30-2-29-5-32-15 0-2 29-251t30-251l73 117q73 117 146 236t75 123q4 7 4 15 0 24-44 28-18 0-18 11 0 1 2 13 3 14 6 18t13 4h12q10 0 34-1t64-1q69 0 87 2h7q7-7 7-11 0-17-9-32-3-3-17-3-13-1-24-2t-21-5-16-7-12-8-10-7-8-9-7-7L452 282Q272-9 266-16q-3-2-7-5l-18-1h-7q-18 0-18 7-3 6-39 320-38 318-39 321-5 11-62 11H59q-7 5-7 11Z"/></defs><g stroke="currentColor" fill="currentColor" stroke-width="0"><use data-c="1D449" xlink:href="#a" transform="scale(1 -1)"/></g></svg>

<svg style="vertical-align: -0.05ex" xmlns="http://www.w3.org/2000/svg" width="1.74ex" height="1.595ex" role="img" focusable="false" viewBox="0 -683 769 705" xmlns:xlink="http://www.w3.org/1999/xlink"><defs><path id="MJX-74-TEX-I-1D449" d="M52 648Q52 670 65 683H76Q118 680 181 680Q299 680 320 683H330Q336 677 336 674T334 656Q329 641 325 637H304Q282 635 274 635Q245 630 242 620Q242 618 271 369T301 118L374 235Q447 352 520 471T595 594Q599 601 599 609Q599 633 555 637Q537 637 537 648Q537 649 539 661Q542 675 545 679T558 683Q560 683 570 683T604 682T668 681Q737 681 755 683H762Q769 676 769 672Q769 655 760 640Q757 637 743 637Q730 636 719 635T698 630T682 623T670 615T660 608T652 599T645 592L452 282Q272 -9 266 -16Q263 -18 259 -21L241 -22H234Q216 -22 216 -15Q213 -9 177 305Q139 623 138 626Q133 637 76 637H59Q52 642 52 648Z"></path></defs><g stroke="currentColor" fill="currentColor" stroke-width="0" transform="scale(1,-1)"><g data-mml-node="math"><g data-mml-node="mi"><use data-c="1D449" xlink:href="#MJX-74-TEX-I-1D449"></use></g></g></g></svg>
